X: 2
T: The Curlew Hills
R: barndance
M: 4/4
L: 1/8
K: Gmaj
GABc dgfa|g2B2 d3B|cBAB c3c|BAGA BcBA|GABc dgfa|g2B2 d3B|cBAB cAFA|1 G2 {A}GF G2 (3DEF:|2 G2 {A}GF GABc||:d2b2 c2a2|B2g2 gdBG|FGAB cAFA|GFGA BABc|d2b2 c2a2|B2g2 gdBG|FGAB cAFA|1 G2 {A}GF GABc:|2 G2 D2 G,4||


Tune 670	Setting 13715

